flaticon/gastronomy/banana.svg

<svg xmlns="http://www.w3.org/2000/svg" width="32" height="32" viewBox="0 0 24 24">
    <path d="M 22.382812 3.65625 C 22.105469 3.183594 21.78125 2.730469 21.386719 2.269531 L 20.089844 0.199219 C 20.027344 0.101562 19.929688 0.0351562 19.816406 0.0117188 C 19.707031 -0.015625 19.589844 0.0078125 19.492188 0.0703125 L 18.558594 0.6875 C 18.375 0.804688 18.316406 1.042969 18.414062 1.238281 L 19.515625 3.351562 C 19.535156 3.410156 19.554688 3.464844 19.574219 3.523438 C 19.644531 3.726562 19.714844 3.9375 19.714844 4.089844 C 19.742188 8.136719 16.597656 12.691406 11.09375 16.582031 C 9.011719 18.054688 7.378906 19.109375 5.660156 19.824219 C 4.894531 20.140625 4.121094 20.386719 3.292969 20.578125 C 2.722656 20.710938 2.328125 20.363281 1.910156 19.929688 C 1.683594 19.691406 1.507812 19.507812 1.242188 19.5 C 0.605469 19.476562 0.300781 20.378906 0.269531 20.984375 C 0.265625 21.101562 0.304688 21.214844 0.386719 21.296875 C 2.089844 23.101562 4.234375 24 6.761719 24 C 9.441406 24 12.542969 22.988281 15.996094 20.96875 C 22.78125 16.992188 25.644531 9.226562 22.382812 3.65625 Z M 5.988281 20.609375 C 7.777344 19.867188 9.457031 18.785156 11.585938 17.277344 C 17.136719 13.351562 20.371094 8.722656 20.550781 4.503906 C 21.335938 8.003906 19.867188 11.664062 17.699219 14.058594 C 12.714844 19.570312 8.011719 20.992188 5.054688 20.957031 C 5.367188 20.851562 5.679688 20.738281 5.988281 20.609375 Z M 15.5625 20.234375 C 11.203125 22.785156 5.183594 24.949219 1.140625 20.851562 C 1.164062 20.699219 1.203125 20.5625 1.246094 20.464844 C 1.265625 20.484375 1.28125 20.5 1.296875 20.519531 C 1.554688 20.789062 1.972656 21.210938 2.550781 21.378906 L 2.550781 21.382812 C 2.652344 21.425781 3.628906 21.789062 5.234375 21.789062 C 8.074219 21.789062 12.878906 20.65625 18.328125 14.628906 C 20.886719 11.804688 22.527344 7.34375 21.070312 3.234375 C 21.285156 3.515625 21.480469 3.796875 21.648438 4.085938 C 24.671875 9.25 21.945312 16.496094 15.5625 20.234375 Z M 15.5625 20.234375"/>
</svg>

<svg xmlns="http://www.w3.org/2000/svg" width="32" height="32" viewBox="0 0 24 24">
    <path d="M22.383 3.656a9.538 9.538 0 0 0-.996-1.386L20.09.2a.424.424 0 0 0-.274-.188.417.417 0 0 0-.324.058l-.933.617a.425.425 0 0 0-.145.551l1.102 2.114.058.171c.07.204.14.414.14.567.028 4.047-3.116 8.601-8.62 12.492-2.082 1.473-3.715 2.527-5.434 3.242-.765.317-1.539.563-2.367.754-.57.133-.965-.215-1.383-.648-.226-.239-.402-.422-.668-.43-.637-.023-.941.879-.972 1.484a.417.417 0 0 0 .117.313C2.09 23.102 4.234 24 6.762 24c2.68 0 5.781-1.012 9.234-3.031 6.785-3.977 9.649-11.742 6.387-17.313zM5.988 20.61c1.79-.742 3.469-1.824 5.598-3.332 5.55-3.925 8.785-8.554 8.965-12.773.785 3.5-.684 7.16-2.852 9.555-4.984 5.511-9.687 6.933-12.644 6.898.312-.105.625-.219.933-.348zm9.575-.375c-4.36 2.551-10.38 4.715-14.422.618.023-.153.062-.29.105-.387.02.02.035.035.05.055.259.27.677.69 1.255.859v.004c.101.043 1.078.406 2.683.406 2.84 0 7.645-1.133 13.094-7.16 2.559-2.824 4.2-7.285 2.742-11.395.215.282.41.563.578.852 3.024 5.164.297 12.41-6.085 16.148zm0 0"/>
</svg>
